src/art_src/xrc_preview.svg

<svg width="24px" height="24px" viewBox="0 0 24 24" fill="none" xmlns="http://www.w3.org/2000/svg">
<path d="M4.52393 6.25C4.52393 5.83579 4.85971 5.5 5.27393 5.5H18.7297C19.1439 5.5 19.4797 5.83579 19.4797 6.25V9.75C19.4797 10.1642 19.1439 10.5 18.7297 10.5H5.27393C4.85971 10.5 4.52393 10.1642 4.52393 9.75V6.25ZM6.02393 7V9H17.9797V7H6.02393Z" fill="#212121"/>
<path d="M14.2297 11.979C13.8155 11.979 13.4797 12.3148 13.4797 12.729V17.229C13.4797 17.6432 13.8155 17.979 14.2297 17.979H18.7297C19.1439 17.979 19.4797 17.6432 19.4797 17.229V12.729C19.4797 12.3148 19.1439 11.979 18.7297 11.979H14.2297ZM14.9797 16.479V13.479H17.9797V16.479H14.9797Z" fill="#212121"/>
<path d="M4.52393 13.25C4.52393 12.8358 4.85971 12.5 5.27393 12.5H11.25C11.6642 12.5 12 12.8358 12 13.25C12 13.6642 11.6642 14 11.25 14H5.27393C4.85971 14 4.52393 13.6642 4.52393 13.25Z" fill="#212121"/>
<path d="M5.27393 16C4.85971 16 4.52393 16.3358 4.52393 16.75C4.52393 17.1642 4.85971 17.5 5.27393 17.5H11.25C11.6642 17.5 12 17.1642 12 16.75C12 16.3358 11.6642 16 11.25 16H5.27393Z" fill="#212121"/>
<path d="M2 5.75C2 4.23122 3.23122 3 4.75 3H19.25C20.7688 3 22 4.23122 22 5.75V18.25C22 19.7688 20.7688 21 19.25 21H4.75C3.23122 21 2 19.7688 2 18.25V5.75ZM4.75 4.5C4.05964 4.5 3.5 5.05964 3.5 5.75V18.25C3.5 18.9404 4.05964 19.5 4.75 19.5H19.25C19.9404 19.5 20.5 18.9404 20.5 18.25V5.75C20.5 5.05964 19.9404 4.5 19.25 4.5H4.75Z" fill="#212121"/>
</svg>

<?xml version="1.0" encoding="UTF-8" standalone="no"?><!DOCTYPE svg PUBLIC "-//W3C//DTD SVG 1.1//EN" "http://www.w3.org/Graphics/SVG/1.1/DTD/svg11.dtd"><svg width="100%" height="100%" viewBox="0 0 24 24" version="1.1" xmlns="http://www.w3.org/2000/svg" xmlns:xlink="http://www.w3.org/1999/xlink" xml:space="preserve" xmlns:serif="http://www.serif.com/" style="fill-rule:evenodd;clip-rule:evenodd;stroke-linejoin:round;stroke-miterlimit:2;"><path d="M4.524,6.25c-0,-0.414 0.336,-0.75 0.75,-0.75l13.456,0c0.414,0 0.75,0.336 0.75,0.75l-0,3.5c-0,0.414 -0.336,0.75 -0.75,0.75l-13.456,0c-0.414,0 -0.75,-0.336 -0.75,-0.75l-0,-3.5Zm1.5,0.75l-0,2l11.956,0l-0,-2l-11.956,0Z" style="fill:#212121;fill-rule:nonzero;"/><path d="M14.23,11.979c-0.415,-0 -0.75,0.336 -0.75,0.75l-0,4.5c-0,0.414 0.335,0.75 0.75,0.75l4.5,0c0.414,0 0.75,-0.336 0.75,-0.75l-0,-4.5c-0,-0.414 -0.336,-0.75 -0.75,-0.75l-4.5,0Zm0.75,4.5l-0,-3l3,0l-0,3l-3,0Z" style="fill:#212121;fill-rule:nonzero;"/><path d="M4.524,13.25c-0,-0.414 0.336,-0.75 0.75,-0.75l5.976,0c0.414,0 0.75,0.336 0.75,0.75c0,0.414 -0.336,0.75 -0.75,0.75l-5.976,0c-0.414,0 -0.75,-0.336 -0.75,-0.75Z" style="fill:#212121;fill-rule:nonzero;"/><path d="M5.274,16c-0.414,0 -0.75,0.336 -0.75,0.75c-0,0.414 0.336,0.75 0.75,0.75l5.976,0c0.414,0 0.75,-0.336 0.75,-0.75c0,-0.414 -0.336,-0.75 -0.75,-0.75l-5.976,0Z" style="fill:#212121;fill-rule:nonzero;"/><path d="M2,5.75c0,-1.519 1.231,-2.75 2.75,-2.75l14.5,0c1.519,0 2.75,1.231 2.75,2.75l0,12.5c0,1.519 -1.231,2.75 -2.75,2.75l-14.5,0c-1.519,0 -2.75,-1.231 -2.75,-2.75l0,-12.5Zm2.75,-1.25c-0.69,0 -1.25,0.56 -1.25,1.25l0,12.5c0,0.69 0.56,1.25 1.25,1.25l14.5,0c0.69,0 1.25,-0.56 1.25,-1.25l0,-12.5c0,-0.69 -0.56,-1.25 -1.25,-1.25l-14.5,0Z" style="fill:#212121;fill-rule:nonzero;"/></svg>
